!!!!SEGMENT: pl-kk--kk-i-471--004_renner-josef--missa-tertia-sanctus.krn
!!!cenid: 18xx:1443
!!!COM: Renner, Josef
!!!COM-rismID: pe41020479
!!!CDT:
!!!CNT:
!!!OPR: Missa tertia
!!!OTL: Sanctus
!!!OMV: 004
!!!PDT:
!!!AGN: Sacred; Mass
!!!SMS-siglum: PL-Kk
!!!SMS-shelfmark: Kk.I.471
!!!SMS-shelfwork: 001-004 M
!!!SMS-variant: Partytura PL-Kk Kk.I.471:8
!!!SMS-altvar: Partytura PL-Kk Kk.I.471:19, Tenor I PL-Kk Kk.I.471:33, Tenor II PL-Kk Kk.I.471:46, Bas I PL-Kk Kk.I.471:59, Bas II PL-Kk Kk.I.471:72, Tenor I PL-Kk Kk.I.471:26, Tenor II PL-Kk Kk.I.471:39, Bas I PL-Kk Kk.I.471:52, Bas II PL-Kk Kk.I.471:66
!!!NIFC-rismSourceID: 1001140695
!!!NIFC-islandoraID: pl-kk:13873
!!!URL-pdf-islandora: https://repozytorium.nifc.pl/islandora/object/pl-kk%3A13873/datastream/PDF/view
!!!URL-scan: https://polish.musicsources.pl/pl/lokalizacje/galeria/rekopisy/6078 @EN{Scan on Polish Music Sources Website} @PL{Skany w portalu Dziedzictwo Muzyki Polskiej w otwartym dostępie}
!!!ONB-nifc: UWAGA: na podstawie partytury. Proszę uzupełnić pola !!!SMS dot. partytury i głosów. Uwaga: części Mszy: 1. Kyrie, 2. Gloria, 3. Credo, 4. Sanctus, 5. Benedictus, 6. Agnus Dei
!!!AIN: 1 empty 2 organ 1 tenor
!!!key:
**kern	**kern	**kern	**text	**dynam	**kern	**text	**dynam
*part4	*part3	*part2	*part2	*part2	*part1	*part1	*part1
*staff4	*staff3	*staff2	*staff2	*	*staff1	*staff1	*
*Iorgan	*Iorgan	*Iempty	*	*	*Itenor	*	*
*I"[Organo]	*I"[Organo]	*I"[Bas I i II]	*	*	*I"[Tenor I i II]	*	*
*I'[org]	*I'[org]	*I'[Coro B 1, 2]	*	*	*I'[Coro T 1, 2]	*	*
*clefF4	*clefG2	*clefF4	*	*	*clefG2	*	*
*k[b-]	*k[b-]	*k[b-]	*	*	*k[b-]	*	*
*F:	*F:	*F:	*	*	*F:	*	*
*M4/4	*M4/4	*M4/4	*	*	*M4/4	*	*
*met(c|)	*met(c|)	*met(c|)	*	*	*met(c|)	*	*
=1	=1	=1	=1	=1	=1	=1	=1
*^	*^	*	*	*	*	*	*
!	!	!LO:TX:t=P:problem=brak nazwy instrumentu	!	!	!	!	!LO:TX:i:a:B:t=Andante	!	!
2A/	2F\	2cc/	1f	1r	.	.	1r	.	.
2B-/	2BB-\	2dd/	.	.	.	.	.	.	.
*	*	*v	*v	*	*	*	*	*	*
*v	*v	*	*	*	*	*	*	*
=2	=2	=2	=2	=2	=2	=2	=2
*	*	*^	*	*	*^	*	*
2A/ 2F/ 2FF/	2cc/ 2f	1F	1FF	.	.	1cc	1a	San-	.
2r	2r	.	.	.	.	.	.	.	.
=3	=3	=3	=3	=3	=3	=3	=3	=3	=3
!	!	!	!	!	!	!LO:TX:a:t=P:problem=fermata wykreślona ołówkiem	!	!	!
1r	1r	1E	1C;<	.	.	1cc;>	1g	-ctus,	.
*	*	*v	*v	*	*	*	*	*	*
*	*	*	*	*	*v	*v	*	*
=4	=4	=4	=4	=4	=4	=4	=4
*^	*^	*	*	*	*	*	*
2G\ 2C\	2ryy	1cc	1e	1r	.	.	1r	.	.
2A\	2AA\	.	.	.	.	.	.	.	.
*	*	*v	*v	*	*	*	*	*	*
=5	=5	=5	=5	=5	=5	=5	=5	=5
*	*	*	*^	*	*	*^	*	*
2Bn\	2GG\	2dd\ 2g\	1G	1GG	.	.	1dd	1bn	San-	.
2r	2ryy	2r	.	.	.	.	.	.	.	.
=6	=6	=6	=6	=6	=6	=6	=6	=6	=6	=6
1r;>	1rFyy	1r;>	1G;>	1C	.	.	1ee;>	1cc	-ctus,	.
=7	=7	=7	=7	=7	=7	=7	=7	=7	=7	=7
1c	2F\	2ff\ 2a\	1r	1ryy	.	.	1r	1ryy	.	.
.	2C\	2ee\ 2g\	.	.	.	.	.	.	.	.
=8	=8	=8	=8	=8	=8	=8	=8	=8	=8	=8
!	!	!	!	!	!	!	!	!	!	!LO:DY:a
2c/	2F 2FF\	2ff\ 2a\	2A/	2F\	.	.	2ff/	2cc\	San-	mf
2r	2ryy	2r	2G/	2C\	.	.	2ee/	2cc\	-ctus	.
*v	*v	*	*	*	*	*	*	*	*	*
=9	=9	=9	=9	=9	=9	=9	=9	=9	=9
1r	1r	2G/	2C\	.	.	2ee/	2cc\	Do-	.
.	.	4A/	4AA\	.	.	4ee/	4cc\	-mi-	.
.	.	4A/	4AA\	.	.	4ee/	4cc\	-nus	.
=10	=10	=10	=10	=10	=10	=10	=10	=10	=10
1r	1r	2A/	2D\	.	.	2ff/	2dd\	De-	.
.	.	2F/	2D\	.	.	2dd/	2a\	-us	.
!!LO:LB:g=original
=11	=11	=11	=11	=11	=11	=11	=11	=11	=11
1r	1r	2F/	2D\	.	.	2dd/	2a\	Sa-	.
.	.	2F/	2BB-\	.	.	2dd/	2b-\	-ba-	.
=12	=12	=12	=12	=12	=12	=12	=12	=12	=12
1r	1r	1F;>	1FF	.	.	1cc;>	1a	-oth	.
*	*	*	*	*	*	*v	*v	*	*
=13||	=13||	=13||	=13||	=13||	=13||	=13||	=13||	=13||
*^	*	*	*	*	*	*	*	*
*	*	*^	*	*	*	*	*	*	*
*	*	*	*	*	*	*above	*	*	*	*
!	!	!	!	!LO:TX:a:t=P:global:problem=tekst z adnotacją "above" nad pięciolinią	!	!	!	!LO:TX:a:i:t=Piu mosso	!	!
!	!	!	!	!	!	!	!LO:DY:a:rj	!	!	!
1c	[<1F	1a	1f	2F/	1r	Ple-	f	1r	.	.
.	.	.	.	4F/	.	-ni	.	.	.	.
.	.	.	.	4F/	.	sunt	.	.	.	.
=14	=14	=14	=14	=14	=14	=14	=14	=14	=14	=14
*	*	*	*	*	*	*	*	*^	*	*
!	!	!	!	!	!	!	!	!	!	!	!LO:DY:a:rj
1c	2F\]	1cc/	1g	(>2F/	1ryy	coe-	.	1ryy	2cc\	Ple-	f
.	2E\	.	.	2E/)	.	.	.	.	4cc\	-ni	.
.	.	.	.	.	.	.	.	.	4cc\	sunt	.
=15	=15	=15	=15	=15	=15	=15	=15	=15	=15	=15	=15
*	*	*	*	*	*	*	*	*	*	*^	*
*	*	*	*	*	*	*	*	*	*	*	*above	*
!	!	!	!	!	!	!	!	!LO:TX:a:t=P:global:problem=tekst z adnotacją "above" nad pięciolinią	!	!	!	!
1F	2D\	1f/	4A\	2F/	1ryy	-li	.	2ff/	4a\	coe-	Ple-	.
.	.	.	4B-\	.	.	.	.	.	4b-\	.	.	.
.	2AA\	.	4c\	2A/	.	et	.	4ff/	4cc\	.	-ni	.
.	.	.	4d\	.	.	.	.	4ff/	4dd\	.	sunt	.
=16	=16	=16	=16	=16	=16	=16	=16	=16	=16	=16	=16	=16
*	*	*	*	*	*	*^	*	*	*	*	*	*
4G/	1C	4e/	2c\	(>(>1G	2C\	ter-	Ple-	.	1ee	1cc	-li	coe-	.
4E/	.	4g/	.	.	.	.	.	.	.	.	.	.	.
4G/	.	4cc/	4e\	.	4C\	.	-ni	.	.	.	.	.	.
4c/	.	4ee/	4g\	.	4C\	.	sunt	.	.	.	.	.	.
=17	=17	=17	=17	=17	=17	=17	=17	=17	=17	=17	=17	=17	=17
[>1c	1F	2ff/	1a	2A/)	2F\	.	coe-	.	2ff/	2cc	et	-li	.
.	.	2cc/	.	2c/	4A\	.	li	.	2cc/	2ryy	.	et	.
.	.	.	.	.	4A\	.	et	.	.	.	.	.	.
=18	=18	=18	=18	=18	=18	=18	=18	=18	=18	=18	=18	=18	=18
!LO:N:xstem:vis=1	!	!	!	!	!	!	!	!	!	!	!	!	!
2c/]	2G\	1gg	1g	2c/	(<2G\	.	ter-	.	1gg	1dd	ter-	ter-	.
2Bn/	2GG\	.	.	2Bn/)	2GG\)	.	.	.	.	.	.	.	.
!!LO:LB:g=original
=19	=19	=19	=19	=19	=19	=19	=19	=19	=19	=19	=19	=19	=19
[1c	2C\	2ee/	1g	1c	1C	-ra	-ra	.	1ee	1cc	-ra	-ra	.
.	2E\	2gg/	.	.	.	.	.	.	.	.	.	.	.
*	*	*	*	*	*	*below	*	*	*	*	*	*below	*
*	*	*	*	*	*	*	*	*	*	*	*v	*v	*
*	*	*	*	*	*	*v	*v	*	*	*	*	*
=20	=20	=20	=20	=20	=20	=20	=20	=20	=20	=20	=20
!LO:N:xstem:vis=1	!	!	!	!	!	!	!	!	!	!	!
2c/]	2F\	2ff/	2a\	2A/	2F\	.	.	2ff/	2cc\	glo-	.
2A/	2FF\	2dd/	2f\	4F/	4FF\	.	.	4dd/	4a\	-ri-	.
.	.	.	.	4F/	4FF\	.	.	4dd/	4a\	-a	.
=21	=21	=21	=21	=21	=21	=21	=21	=21	=21	=21	=21
1G	1GG	2cc/	1d	1D	1GG	.	.	(>2cc/	1g	tu-	.
.	.	2bn/	.	.	.	.	.	2bn/)	.	.	.
=22	=22	=22	=22	=22	=22	=22	=22	=22	=22	=22	=22
!LO:N:xstem:vis=1	!LO:N:xstem:vis=1	!	!	!LO:N:xstem:vis=1	!LO:N:xstem:vis=1	!	!	!LO:N:xstem:vis=1	!LO:N:xstem:vis=1	!	!
2G;<	2C;>	2cc/;>	2e\	2E/	2C\;<	.	.	2cc;>/	2g\	-a	.
*	*	*	*	*	*	*above	*	*	*	*	*
2G	2C	4cc/	2e\	2c/	2r	Ho-	.	2r	2ryy	.	.
.	.	4dd/	.	.	.	.	.	.	.	.	.
*	*	*	*	*v	*v	*	*	*v	*v	*	*
=23||	=23||	=23||	=23||	=23||	=23||	=23||	=23||	=23||	=23||
*M3/2	*M3/2	*M3/2	*M3/2	*M3/2	*	*	*M3/2	*	*
*	*	*	*	*^	*	*	*^	*	*
!	!	!	!	!	!	!	!	!LO:TX:i:a:B:t=Allegro	!	!	!
1G	1.C	4ee/	1e	2c/	1r	-san-	.	2r	2ryy	.	.
.	.	4dd/	.	.	.	.	.	.	.	.	.
.	.	4cc/	.	2C/	.	-na	.	2r	2ryy	.	.
.	.	4dd/	.	.	.	.	.	.	.	.	.
*	*	*	*	*	*	*below	*	*	*	*	*
!	!	!	!	!	!	!	!	!	!	!	!LO:DY:a:rj
2c/	.	4ee/	2g\	2G/	2C\	.	.	2ee/	2cc\	Ho-	f
.	.	4cc/	.	.	.	.	.	.	.	.	.
=24	=24	=24	=24	=24	=24	=24	=24	=24	=24	=24	=24
[>2c/	2F\	4a/	2f\	2A/	2F\	.	.	2ff/	2cc\	-san-	.
.	.	4bn/	.	.	.	.	.	.	.	.	.
2c/]	2E	4cc/	2g\	2G/	2C\	.	.	2ee/	2cc\	-na,	.
.	.	4b/	.	.	.	.	.	.	.	.	.
*	*	*	*	*	*	*above	*	*	*	*	*
2G/	2C	4cc/	2e\	2c/	2r	Ho-	.	2r	2ryy	.	.
.	.	4dd/	.	.	.	.	.	.	.	.	.
=25	=25	=25	=25	=25	=25	=25	=25	=25	=25	=25	=25
1G	1.C	4ee/	1e	2c/	1r	-san-	.	1r	1ryy	.	.
.	.	4dd/	.	.	.	.	.	.	.	.	.
.	.	4cc/	.	2C/	.	-na	.	.	.	.	.
.	.	4dd/	.	.	.	.	.	.	.	.	.
*	*	*	*	*	*	*below	*	*	*	*	*
2c/	.	4ee/	2g\	2G/	2C\	.	.	2ee/	2cc\	Ho-	.
.	.	4cc/	.	.	.	.	.	.	.	.	.
!!LO:PB:g=original
=26	=26	=26	=26	=26	=26	=26	=26	=26	=26	=26	=26
1c	2F\	4a/	2f\	2A/	2F\	.	.	2ff/	2cc\	-san-	.
.	.	4bn/	.	.	.	.	.	.	.	.	.
.	2E\	4cc/	2g\	2G/	2C\	.	.	2ee/	2cc\	-na	.
.	.	4b/	.	.	.	.	.	.	.	.	.
2G/	2C\	4cc/	2e\	2c/	2c\	.	.	2cc/	2cc\	Ho-	.
.	.	4dd	.	.	.	.	.	.	.	.	.
=27||	=27||	=27||	=27||	=27||	=27||	=27||	=27||	=27||	=27||	=27||	=27||
*M2/2	*M2/2	*M2/2	*M2/2	*M2/2	*M2/2	*	*	*M2/2	*	*	*
*met(c|)	*met(c|)	*met(c|)	*met(c|)	*met(c|)	*met(c|)	*	*	*met(c|)	*	*	*
!	!	!	!	!	!	!	!	!LO:TX:a:i:t=Piu meno	!	!	!
[>1c	4C\	2ee/	2g\	2c/	2c\	.	.	2cc/	2cc\	-san-	.
.	4BBn\	.	.	.	.	.	.	.	.	.	.
.	4AA\	[>2cc/	2e\	2c/	2c\	.	.	2cc/	2cc\	-na	.
.	4GG#\	.	.	.	.	.	.	.	.	.	.
=28	=28	=28	=28	=28	=28	=28	=28	=28	=28	=28	=28
1c]	4AA\	2cc/]	1f	2A/	2A\	.	.	2ff/	2cc\	in	.
.	4GGn\	.	.	.	.	.	.	.	.	.	.
.	4FF\	2a/	.	2A/	2F\	.	.	2ff/	2cc\	ex-	.
.	4AA\	.	.	.	.	.	.	.	.	.	.
=29	=29	=29	=29	=29	=29	=29	=29	=29	=29	=29	=29
!	!	!LO:N:vis=2	!	!	!	!	!	!	!	!	!
1G	4BB-X\	2g/	1d	1B-	1BB-	.	.	1gg	1dd	-cel-	.
.	4AA\	.	.	.	.	.	.	.	.	.	.
.	4GG\	2b-X/	.	.	.	.	.	.	.	.	.
.	4BB-\	.	.	.	.	.	.	.	.	.	.
=30	=30	=30	=30	=30	=30	=30	=30	=30	=30	=30	=30
2B-/	2D\	4b-/	2f\	2F/	1BB-	.	.	1dd	1dd	-sis	.
.	.	4a/	.	.	.	.	.	.	.	.	.
2ryy	2BB-\	4g/	2d\	2G/	.	.	.	.	.	.	.
.	.	4d/	.	.	.	.	.	.	.	.	.
=31	=31	=31	=31	=31	=31	=31	=31	=31	=31	=31	=31
2A/	[<1C	2f/	2c\	2A/	2C\	.	.	2ff/	2cc\	in	.
2c/	.	4g/	2f\	2F/	2C\	.	.	2cc/	2a\	ex-	.
.	.	4a/	.	.	.	.	.	.	.	.	.
=32	=32	=32	=32	=32	=32	=32	=32	=32	=32	=32	=32
!	!	!	!	!	!	!	!	!	!	!	!LO:HP:a
1c	1C]	4b-/	2e\	1G	1C	.	.	1ee	1cc	-cel-	> ]]
.	.	4cc/	.	.	.	.	.	.	.	.	.
.	.	4dd/	2b-\	.	.	.	.	.	.	.	.
.	.	4ee/	.	.	.	.	.	.	.	.	.
=33	=33	=33	=33	=33	=33	=33	=33	=33	=33	=33	=33
!	!	!	!	!LO:TX:a:t=P:problem=łuczek nad nutą. Prawdopodobnie fermata.	!	!	!	!	!	!	!
1c;>	1FF;<	1ff;>	1a	1F;<	1FF	.	.	1ff;>	1cc	-sis.	.
*v	*v	*	*	*v	*v	*	*	*v	*v	*	*
*	*v	*v	*	*	*	*	*	*
==	==	==	==	==	==	==	==
*-	*-	*-	*-	*-	*-	*-	*-
!!!system-decoration: [s1,s2,s3,s4]
!!!RDF**kern: > = above
!!!RDF**kern: < = below
!!!EED: Mateusz Mrugas
!!!EEV: 2021-01-27
!!!ENC: Tomasz Grochalski
!!!END: 2021-01-22
